src/assets/images/home/icons/theme.svg

<svg width="20" height="21" viewBox="0 0 20 21" fill="none" xmlns="http://www.w3.org/2000/svg">
<path fill-rule="evenodd" clip-rule="evenodd" d="M9.47241 0.0551758L3.97241 9.05518H14.9724L9.47241 0.0551758ZM14.9724 20.0552C17.4577 20.0552 19.4724 18.0405 19.4724 15.5552C19.4724 13.0699 17.4577 11.0552 14.9724 11.0552C12.4871 11.0552 10.4724 13.0699 10.4724 15.5552C10.4724 18.0405 12.4871 20.0552 14.9724 20.0552ZM8.47241 11.5552H0.472412V19.5552H8.47241V11.5552Z" fill="#F6F8FB"/>
</svg>

<svg fill="none" xmlns="http://www.w3.org/2000/svg" viewBox="0 0 20 21"><path fill-rule="evenodd" clip-rule="evenodd" d="m9.47.06-5.5 9h11l-5.5-9Zm5.5 20a4.5 4.5 0 1 0 0-9 4.5 4.5 0 0 0 0 9Zm-6.5-8.5h-8v8h8v-8Z" fill="#F6F8FB"/></svg>
